X:422
T:Lochaber Gathering, The 
C:Joe Buchanan's Scottish Tome - Page 387.0
I:387 0
C:P.M. G.S. MacLenna
Z:Carl Allison
R:March
L:1/8
M:2/4
K:A
e/>d/ | "A"c(B/<A/) A/>B/c/>e/ | "D"d/>e/f/>g/ "A"a/>e/"D"f/<a/ | "A"c(B/>A/) A/>c/e/>c/ | "D"f/>e/d/>c/ "E7"B(e/>d/) |
"A"A(B/d/) A/>B/c/<e/ | "D"d/>e/f/>g/ "A"a/>e/"D"f/>a/ | "A"c/>A/A/>c/ "A"(c/>e/)"E7"d/>B/ | "A"{d}cA {A}A :|
f/>g/ | "A"a(e/>f/) e/>A/e/>c/ | "A"a(c/>e/) "D"f/>e/d/>c/ | "A"a(e/>f/) e/>A/c/<e/ | "D"f/>e/d/>c/ "E7"B(f/>g/) |
"A"a(e/>f/) e/>A/e/>c/ | a(c/>e/) a(e/>d/) | "A"c/>A/A/>c/ (c/<e/)d/>B/ | "A"{d}cA {A}A :|
(e/>d/) | "A"c/>A/A/>c/ (c/<e/)A/>c/ | "D"d/>A/A/>d/ (d/>f/)A/>d/ | "A"c/>A/A/>c/ (c/<A/)(c/<e/) | "D"f/>e/d/>c/ "E7"B(e/>d/) |
"A"c/>A/A/>c/ (c/<e/)A/>c/ | "D"d/>A/A/>d/ (d/<f/)A/>d/ | "A"c/>A/A/>c/ "E7"(c/<e/)d/>B/ | "A"{/d}cA {A}A :|
f/>g/ | "A"a/>g/a/>e/ c/<e/c/<A/ | "D"d/>f/d/>B/ "A"c/<e/c/<A/ | "D"d/<f/B/>d/ "A"c/<e/A/>c/ | "D"f/>e/d/>c/ "E7"Bf/>g/ |
"A"a/>g/a/>e/ c/e/c/A/ | "D"d/>f/d/>B/ "A"c/>e/c/>A/ | "A"c/>A/A/>c/ "E7"c/>e/d/>B/ | "A"{d}cA {A}A :|

